X:4
T:Nan's Waltz
C:Pat Shaw
M:3/4
R:waltz
L:1/4
K:G
d | "G"d>cB | "C6"A>GA | "G"B>AB | "G"D2D | "C"E>GA |
"G"B<dB | "C6"A3- | "D7"A2D | "G"d>cB | "C6"A>GA | "G"B>AB |
"G"D2D | "C"E>Ge | "D7"da g/f/ |
"Em"gfe | "Bm"f>dB | "Bm"B2d | "C"e>fg | "G"d>cB | "Am"A3- |
"D7"A2d | "Em"g>f g/a/ | "Bm"bfd | "C"e>d e/f/ | "G"gdB | "Am"c>B c/d/ |
"Am/g"efg | "Am/f"ABG | "D7"FED || "G"d>cB | "C6"A>GA | "G"B>AB |
"G"D2D | "C"E>Ge | "D7"d<BA | "G"G3- | "G"G2|]
